T: Pink Flamingo, The
M: 6/8
L: 1/8
K: Emin
|: z ge fde | instead of |: g2 e fde ||: z bg afg | instead of |: b2 g afg |
